public/avatar/body/58.svg

<svg xmlns:xlink="http://www.w3.org/1999/xlink" height="82" width="84.85" xmlns="http://www.w3.org/2000/svg"><g transform="translate(37.4 42.25)"><use height="38" transform="translate(-11.95 -17.45)" width="32.05" xlink:href="#a"/><use height="38.95" transform="translate(-12.45 -17.95)" width="33.05" xlink:href="#b"/><use height="12.5" transform="translate(-11.3 10.7)" width="31.45" xlink:href="#c"/></g><defs><path d="M27.35 7.4q2.15 4.15 3.55 8.75 1.45 4.7 1.15 9.5-.35 4.95-4.2 8.1-3.8 3.2-8.75 4.05l-2.6.2q-3.6 0-7.05-1.15-4.65-1.6-7.1-5.5Q-.2 27.4.05 23q.2-4.4 2-9.3Q3.85 8.75 7 5.05 10.1 1.3 14.7.1l1.8-.1q1.9.05 3.7.8 4.75 2.05 7.15 6.6" fill="#ffbf73" fill-rule="evenodd" transform="translate(-.05)" id="d"/><path d="M27.35 7.4Q24.95 2.85 20.2.8 17.55-.3 14.7.1 10.1 1.3 7 5.05q-3.15 3.7-4.95 8.65-1.8 4.9-2 9.3-.25 4.4 2.3 8.35 2.45 3.9 7.1 5.5 4.65 1.55 9.65.95 4.95-.85 8.75-4.05 3.85-3.15 4.2-8.1.3-4.8-1.15-9.5-1.4-4.6-3.55-8.75Z" fill="none" stroke="#776237" stroke-linecap="round" stroke-linejoin="round" transform="translate(.45 .5)" id="e"/><use height="38" width="32.05" xlink:href="#d" id="a"/><use height="38.95" width="33.05" xlink:href="#e" id="b"/><g id="c"><path d="m3.8 19.25-1.3 3.4q-5.75.55-9.65-3l-.55-.5-.45-.45-.1-.15-.15-.2-1.35-1.75q.3-1.6-1.05-4.75l2.4 1.1.25.15.4.15h.05l.45.2q13.2 5 26.9-2.25-1.3 3.8-.7 4.9l-1.4 1.4-.4.35-.1.1-.65.55q-5.15 4.1-11.05 4.1L3.8 19.2v.05" fill="red" fill-rule="evenodd" transform="translate(11.3 -10.7)"/><path d="M.05 18.7q3.7 2.25 7.7-.15" fill="none" stroke="#9d0000" stroke-linecap="round" stroke-linejoin="round" transform="translate(11.3 -10.7)"/><path d="m15.75 13.05.95 4.85m-24-4.3-.6 5.05" fill="none" stroke="#fff" stroke-linecap="round" stroke-linejoin="round" transform="translate(11.3 -10.7)"/><path d="M3.8 19.25v-.05l.05.1H3.8v-.05" fill="#d00" fill-rule="evenodd" transform="translate(11.3 -10.7)"/><path d="m3.85 19.3-.05-.1m0 .05-1.3 3.4q-5.75.55-9.65-3l-.55-.5-.45-.45-.1-.15-.15-.2-1.35-1.75q.3-1.6-1.05-4.75M3.85 19.3l1.05 2.35.2.4.25.55q5.9 0 11.05-4.1l.65-.55.1-.1.4-.35 1.4-1.4q-.6-1.1.7-4.9m-15.85 8v.05" fill="none" stroke="#900" stroke-linecap="round" stroke-linejoin="round" transform="translate(11.3 -10.7)"/><path d="m-10.8 11.85 2.4 1.1.25.15.4.15h.05l.45.2q13.2 5 26.9-2.25" fill="none" stroke="#900" stroke-linecap="round" stroke-linejoin="round" transform="translate(11.3 -10.7)"/></g></defs></svg>

<?xml version="1.0" encoding="UTF-8" standalone="no"?>
<svg xmlns:xlink="http://www.w3.org/1999/xlink" height="82.0px" width="84.85px" xmlns="http://www.w3.org/2000/svg">
  <g transform="matrix(1.0, 0.0, 0.0, 1.0, 37.4, 42.25)">
    <use height="38.0" transform="matrix(1.0, 0.0, 0.0, 1.0, -11.95, -17.45)" width="32.05" xlink:href="#sprite0"/>
    <use height="38.95" transform="matrix(1.0, 0.0, 0.0, 1.0, -12.45, -17.95)" width="33.05" xlink:href="#sprite1"/>
    <use height="12.5" transform="matrix(1.0, 0.0, 0.0, 1.0, -11.3, 10.7)" width="31.45" xlink:href="#shape2"/>
  </g>
  <defs>
    <g id="sprite0" transform="matrix(1.0, 0.0, 0.0, 1.0, -0.05, 0.0)">
      <use height="38.0" transform="matrix(1.0, 0.0, 0.0, 1.0, 0.05, 0.0)" width="32.05" xlink:href="#shape0"/>
    </g>
    <g id="shape0" transform="matrix(1.0, 0.0, 0.0, 1.0, -0.05, 0.0)">
      <path d="M27.35 7.4 Q29.5 11.55 30.9 16.15 32.35 20.85 32.05 25.65 31.7 30.6 27.85 33.75 24.05 36.95 19.1 37.8 L16.5 38.0 Q12.9 38.0 9.45 36.85 4.8 35.25 2.35 31.35 -0.2 27.4 0.05 23.0 0.25 18.6 2.05 13.7 3.85 8.75 7.0 5.05 10.1 1.3 14.7 0.1 L16.5 0.0 Q18.4 0.05 20.2 0.8 24.95 2.85 27.35 7.4" fill="#ffbf73" fill-rule="evenodd" stroke="none"/>
    </g>
    <g id="sprite1" transform="matrix(1.0, 0.0, 0.0, 1.0, 0.45, 0.5)">
      <use height="38.95" transform="matrix(1.0, 0.0, 0.0, 1.0, -0.45, -0.5)" width="33.05" xlink:href="#shape1"/>
    </g>
    <g id="shape1" transform="matrix(1.0, 0.0, 0.0, 1.0, 0.45, 0.5)">
      <path d="M27.35 7.4 Q24.95 2.85 20.2 0.8 17.55 -0.3 14.7 0.1 10.1 1.3 7.0 5.05 3.85 8.75 2.05 13.7 0.25 18.6 0.05 23.0 -0.2 27.4 2.35 31.35 4.8 35.25 9.45 36.85 14.1 38.4 19.1 37.8 24.05 36.95 27.85 33.75 31.7 30.6 32.05 25.65 32.35 20.85 30.9 16.15 29.5 11.55 27.35 7.4 Z" fill="none" stroke="#776237" stroke-linecap="round" stroke-linejoin="round" stroke-width="1.0"/>
    </g>
    <g id="shape2" transform="matrix(1.0, 0.0, 0.0, 1.0, 11.3, -10.7)">
      <path d="M3.8 19.25 L2.5 22.65 Q-3.25 23.2 -7.15 19.65 L-7.7 19.15 -8.15 18.7 -8.25 18.55 -8.4 18.35 -9.75 16.6 Q-9.45 15.0 -10.8 11.85 L-8.4 12.95 -8.15 13.1 -7.75 13.25 -7.7 13.25 -7.25 13.45 Q5.95 18.45 19.65 11.2 18.35 15.0 18.95 16.1 L17.55 17.5 17.15 17.85 17.05 17.95 16.4 18.5 Q11.25 22.6 5.35 22.6 L3.8 19.2 3.8 19.25" fill="#ff0000" fill-rule="evenodd" stroke="none"/>
      <path d="M0.05 18.7 Q3.75 20.95 7.75 18.55" fill="none" stroke="#9d0000" stroke-linecap="round" stroke-linejoin="round" stroke-width="1.0"/>
      <path d="M15.75 13.05 L16.7 17.9" fill="none" stroke="#ffffff" stroke-linecap="round" stroke-linejoin="round" stroke-width="1.0"/>
      <path d="M-7.3 13.6 L-7.9 18.65" fill="none" stroke="#ffffff" stroke-linecap="round" stroke-linejoin="round" stroke-width="1.0"/>
      <path d="M3.8 19.25 L3.8 19.2 3.85 19.3 3.8 19.3 3.8 19.25" fill="#dd0000" fill-rule="evenodd" stroke="none"/>
      <path d="M3.85 19.3 L3.8 19.2 M3.8 19.25 L2.5 22.65 Q-3.25 23.2 -7.15 19.65 L-7.7 19.15 -8.15 18.7 -8.25 18.55 -8.4 18.35 -9.75 16.6 Q-9.45 15.0 -10.8 11.85 M3.85 19.3 L4.9 21.65 5.1 22.05 5.35 22.6 Q11.25 22.6 16.4 18.5 L17.05 17.95 17.15 17.85 17.55 17.5 18.95 16.1 Q18.35 15.0 19.65 11.2" fill="none" stroke="#990000" stroke-linecap="round" stroke-linejoin="round" stroke-width="1.0"/>
      <path d="M3.8 19.2 L3.8 19.25" fill="none" stroke="#990000" stroke-linecap="round" stroke-linejoin="round" stroke-width="1.0"/>
      <path d="M-10.8 11.85 L-8.4 12.95 -8.15 13.1 -7.75 13.25 -7.7 13.25 -7.25 13.45 Q5.95 18.45 19.65 11.2" fill="none" stroke="#990000" stroke-linecap="round" stroke-linejoin="round" stroke-width="1.0"/>
    </g>
  </defs>
</svg>
